X: 34564
T: Rip The Calico
R: reel
M: 4/4
K: Gmajor
G3F GABG|AG (3EFG AcBA|G3F GABG|ABGE D3E|
G3F GABG|AG (3EFG AcBA|G3F GABG|ABGE D3E||
GE E2 cABG|AG (3EFG AcBA|GE E2 cABG|ABGE D3E|
GE E2 cABG|AG (3EFG AcBA|GE E2 cABG|ABGE D3A||
BddB (3cBA BG|AG (3EFG ABcA|BddB (3cBA BG|ABGE D3A|
BddB (3cBA BG|AG (3EFG ABcA|Bd d2 eBdB|A2AB cBcA||

